packages/gestalt-icons-android/vr-theme/ic_vr_arrow-double-forward_gestalt.svg

<svg width="24" height="24" viewBox="0 0 24 24" fill="none" xmlns="http://www.w3.org/2000/svg">
<path d="M3.29297 20.793L11.5859 12.5001L3.29297 4.20718L4.70718 2.79297L14.4143 12.5001L4.70718 22.2072L3.29297 20.793Z" fill="black"/>
<path d="M11.293 20.793L19.5859 12.5001L11.293 4.20718L12.7072 2.79297L22.4143 12.5001L12.7072 22.2072L11.293 20.793Z" fill="black"/>
</svg>

<svg xmlns="http://www.w3.org/2000/svg" width="24" height="24"><path d="m3.3 20.8 8.29-8.3-8.3-8.3 1.42-1.4 9.7 9.7-9.7 9.7zm8 0 8.29-8.3-8.3-8.3 1.42-1.4 9.7 9.7-9.7 9.7z"/></svg>
